X: 11
T:Loliña
M:6/8
L:1/8
C:Rosendo Mato Hermida
S:Rep: Ricardo Portela
R:Muiñeira
A:Galicia
K:D
ABc | dcB ABc | "~"B2A AGF | 
EFG EFG | "~"G2F ABc | dcB ABc | 
B2A AGF | EFG ABA | F3 :| AGF | 
AGF AGF | A3 AGF | EFG EFG | G2F AGF | AGF AGF| A3 AGF | BAG EGE |
F3 
| K:DMin
|: DEF
| {G}FED ABA | GFE {F}EFG | 
{A}GFE GAG | FED {E}DEF | {G}FED FED | 
G3 BAG | FED CDE | D3 :|
|K:D
AFA 
| {d}AFA BAF | G2E GEG | {d}GEF GAB | A2F AFA | {d}AFA BAF |G2E GAB
|
cBA GFE | D3 
:||

